Adwaita++-Dark/actions/16/image-straighten.svg

<svg height="16" width="16" xmlns="http://www.w3.org/2000/svg">
  <g fill="#e6ddff">
    <path d="m1 8v1h1v-1zm2 0v1h1v-1zm2 0v1h1v-1zm2 0v1h1v-1zm2 0v1h1v-1zm2 0v1h1v-1zm2 0v1h1v-1zm2 0v1h1v-1z"/>
    <path d="m12.963.99422c-.095.00173-.156.01368-.156.01368l-11.7992 2.1856c-.98329.1822-.80272 1.166-.80272 1.166l.49023 2.6406h3.11119l1.1075-1.9277 2.4629 1.9277h2.3007l.8944-1.2559 1.826 1.2559h2.538l-.963-5.1914c-.138-.7375-.725-.81965-1.01-.81448zm-11.7111 9.00578.7773 4.191c.1822.983 1.1641.801 1.1641.801l11.7987-2.185s.985-.183.803-1.166l-.305-1.641h-2.035l.19 1.021-9.8326 1.823-.5273-2.844z"/>
  </g>
</svg>

<svg xmlns="http://www.w3.org/2000/svg" width="16" height="16" version="1.1">
 <path style="fill:#E6DDFF" d="M 1,8 V 9 H 2 V 8 Z M 3,8 V 9 H 4 V 8 Z M 5,8 V 9 H 6 V 8 Z M 7,8 V 9 H 8 V 8 Z M 9,8 V 9 H 10 V 8 Z M 11,8 V 9 H 12 V 8 Z M 13,8 V 9 H 14 V 8 Z M 15,8 V 9 H 16 V 8 Z"/>
 <path style="fill:#E6DDFF" d="M 12.963,0.99422 C 12.868,0.99595 12.807,1.0079 12.807,1.0079 L 1.0078,3.1935 C 0.02451,3.3757 0.20508,4.3595 0.20508,4.3595 L 0.69531,7.0001 H 3.8065 L 4.914,5.0724 7.3769,7.0001 H 9.6776 L 10.572,5.7442 12.398,7.0001 H 14.936 L 13.973,1.8087 C 13.835,1.0712 13.248,0.98905 12.963,0.99422 Z M 1.2519,10 2.0292,14.191 C 2.2114,15.174 3.1933,14.992 3.1933,14.992 L 14.992,12.807 C 14.992,12.807 15.977,12.624 15.795,11.641 L 15.49,10 H 13.455 L 13.645,11.021 3.8124,12.844 3.2851,10 Z"/>
</svg>
